build/system/CalculateOutline.svg

<svg xmlns="http://www.w3.org/2000/svg" fill="none" viewBox="0 0 24 24" focusable="false"><path d="M0 0H24V24H0z"/><path fill="#74767B" fill-rule="evenodd" d="M21 18C21 19.6569 19.6569 21 18 21L6 21C4.34315 21 3 19.6569 3 18L3 6C3 5.89645 3.00525 5.79412 3.01549 5.69327C3.16912 4.1805 4.4467 3 6 3L18 3C19.6569 3 21 4.34315 21 6L21 18ZM19.7 6L19.7 11.3463L12.6522 11.3463L12.6522 4.3L18 4.3C18.9389 4.3 19.7 5.06112 19.7 6ZM6 4.3C5.06112 4.3 4.3 5.06112 4.3 6L4.3 11.3463L11.3522 11.3463L11.3522 4.3L6 4.3ZM7.86938 10.1843C7.51039 10.1843 7.21938 9.89331 7.21938 9.53433L7.21938 8.68422L6.36938 8.68422C6.01039 8.68422 5.71938 8.3932 5.71938 8.03422C5.71938 7.67523 6.01039 7.38422 6.36938 7.38422L7.21938 7.38422L7.21938 6.53433C7.21938 6.17534 7.51039 5.88433 7.86938 5.88433C8.22836 5.88433 8.51938 6.17534 8.51938 6.53433L8.51938 7.38422L9.36938 7.38422C9.72836 7.38422 10.0194 7.67523 10.0194 8.03422C10.0194 8.3932 9.72836 8.68422 9.36938 8.68422L8.51938 8.68422L8.51938 9.53433C8.51938 9.89331 8.22836 10.1843 7.86938 10.1843ZM14.6061 8.03428C14.6061 7.67529 14.8971 7.38428 15.2561 7.38428L17.2561 7.38428C17.6151 7.38428 17.9061 7.67529 17.9061 8.03428C17.9061 8.39326 17.6151 8.68428 17.2561 8.68428L15.2561 8.68428C14.8971 8.68428 14.6061 8.39326 14.6061 8.03428ZM4.3 18L4.3 12.6463L11.3522 12.6463L11.3522 19.7L6 19.7C5.06112 19.7 4.3 18.9389 4.3 18ZM18 19.7L12.6522 19.7L12.6522 12.6463L19.7 12.6463L19.7 18C19.7 18.9389 18.9389 19.7 18 19.7ZM8.47042 17.6766C8.72426 17.9305 9.13582 17.9305 9.38966 17.6766C9.6435 17.4228 9.6435 17.0112 9.38966 16.7574L8.78855 16.1563L9.3896 15.5552C9.64344 15.3014 9.64344 14.8898 9.3896 14.636C9.13576 14.3821 8.7242 14.3821 8.47036 14.636L7.86931 15.237L7.26834 14.6361C7.0145 14.3822 6.60294 14.3822 6.3491 14.6361C6.09526 14.8899 6.09526 15.3014 6.3491 15.5553L6.95007 16.1563L6.34904 16.7573C6.0952 17.0111 6.0952 17.4227 6.34904 17.6765C6.60288 17.9304 7.01444 17.9304 7.26828 17.6765L7.86931 17.0755L8.47042 17.6766ZM15.2561 14.4544C14.8971 14.4544 14.6061 14.7454 14.6061 15.1044C14.6061 15.4634 14.8971 15.7544 15.2561 15.7544L17.2561 15.7544C17.6151 15.7544 17.9061 15.4634 17.9061 15.1044C17.9061 14.7454 17.6151 14.4544 17.2561 14.4544L15.2561 14.4544ZM15.2561 16.4905C14.8971 16.4905 14.6061 16.7816 14.6061 17.1405C14.6061 17.4995 14.8971 17.7905 15.2561 17.7905L17.2561 17.7905C17.6151 17.7905 17.9061 17.4995 17.9061 17.1405C17.9061 16.7816 17.6151 16.4905 17.2561 16.4905L15.2561 16.4905Z"/></svg>

<svg xmlns="http://www.w3.org/2000/svg" fill="none" viewBox="0 0 24 24" focusable="false"><path fill="#74767B" fill-rule="evenodd" d="M21 18c0 1.65-1.35 3-3 3H6c-1.66 0-3-1.35-3-3V6c0-.11 0-.21.01-.31A3 3 0 0 1 6 3h12c1.65 0 3 1.34 3 3zM19.7 6v5.34h-7.05V4.29H18c.93 0 1.7.77 1.7 1.71M6 4.29c-.94 0-1.71.77-1.71 1.71v5.34h7.06V4.29zm1.86 5.89c-.35 0-.65-.29-.65-.65v-.85h-.85c-.35 0-.65-.29-.65-.65s.3-.65.65-.65h.85v-.85c0-.36.3-.65.65-.65.36 0 .65.29.65.65v.85h.85c.36 0 .65.29.65.65s-.29.65-.65.65h-.85v.85c0 .36-.29.65-.65.65m6.74-2.15c0-.36.29-.65.65-.65h2c.36 0 .65.29.65.65s-.29.65-.65.65h-2c-.36 0-.65-.29-.65-.65M4.29 18v-5.36h7.06v7.06H6c-.94 0-1.71-.77-1.71-1.7M18 19.7h-5.35v-7.06h7.05V18c0 .93-.77 1.7-1.7 1.7m-9.53-2.03c.25.26.66.26.91 0a.64.64 0 0 0 0-.92l-.6-.6.6-.6a.64.64 0 0 0 0-.92.646.646 0 0 0-.91 0l-.61.6-.6-.6a.66.66 0 0 0-.92 0c-.25.25-.25.67 0 .92l.61.6-.61.6c-.25.26-.25.67 0 .92.26.26.67.26.92 0l.6-.6zm6.78-3.22c-.36 0-.65.29-.65.65s.29.65.65.65h2c.36 0 .65-.29.65-.65s-.29-.65-.65-.65zm0 2.04c-.36 0-.65.29-.65.65 0 .35.29.65.65.65h2c.36 0 .65-.3.65-.65 0-.36-.29-.65-.65-.65z"/></svg>
